build/assets/img/icons/close-modal.svg

<?xml version="1.0" encoding="UTF-8" standalone="no"?>
<svg width="23px" height="23px" viewBox="0 0 23 23" version="1.1" xmlns="http://www.w3.org/2000/svg" xmlns:xlink="http://www.w3.org/1999/xlink">
    <!-- Generator: Sketch 3.6.1 (26313) - http://www.bohemiancoding.com/sketch -->
    <title>Combined Shape</title>
    <desc>Created with Sketch.</desc>
    <defs></defs>
    <g id="Page-1" stroke="none" stroke-width="1" fill="none" fill-rule="evenodd">
        <path d="M10.3994952,11.106602 L0.146446609,0.853553391 L0.853553391,0.146446609 L11.106602,10.3994952 L21.35965,0.146447209 L22.0667568,0.853553991 L11.8137088,11.106602 L22.0667568,21.35965 L21.35965,22.0667568 L11.106602,11.8137088 L0.853553391,22.0667574 L0.146446609,21.3596506 L10.3994952,11.106602 Z" id="Combined-Shape" fill="#000000"></path>
    </g>
</svg>

<svg height="23" viewBox="0 0 23 23" width="23" xmlns="http://www.w3.org/2000/svg"><path d="m10.4 11.107-10.255-10.253.709-.708 10.253 10.254 10.253-10.254.707.708-10.253 10.253 10.253 10.253-.707.707-10.253-10.253-10.253 10.253-.708-.707z" fill-rule="evenodd"/></svg>
